svgs/sharp-solid/arrows-to-eye.svg

<svg xmlns="http://www.w3.org/2000/svg" viewBox="0 0 640 512"><!--! Font Awesome Pro 6.6.0 by @fontawesome - https://fontawesome.com License - https://fontawesome.com/license (Commercial License) Copyright 2024 Fonticons, Inc. --><path d="M40 112l38.1 0L0 33.9 33.9 0 112 78.1 112 40l0-24 48 0 0 24 0 96 0 24-24 0-96 0-24 0 0-48 24 0zm521.9 0l38.1 0 24 0 0 48-24 0-96 0-24 0 0-24 0-96 0-24 48 0 0 24 0 38.1L606.1 0 640 33.9 561.9 112zM128 256c20-48 86.4-144 192-144s172 96 192 144c-20 48-86.4 144-192 144s-172-96-192-144zm192 64a64 64 0 1 0 0-128 64 64 0 1 0 0 128zM528 433.9l0 38.1 0 24-48 0 0-24 0-96 0-24 24 0 96 0 24 0 0 48-24 0-38.1 0L640 478.1 606.1 512 528 433.9zM112 472l0-38.1L33.9 512 0 478.1 78.1 400 40 400l-24 0 0-48 24 0 96 0 24 0 0 24 0 96 0 24-48 0 0-24z"/></svg>

<svg xmlns="http://www.w3.org/2000/svg" viewBox="0 0 640 512"><!--! Font Awesome Pro 6.4.0 by @fontawesome - https://fontawesome.com License - https://fontawesome.com/license (Commercial License) Copyright 2023 Fonticons, Inc. --><path d="M40 112l38.1 0L0 33.9 33.9 0 112 78.1 112 40V16l48 0V40l0 96v24H136l-96 0H16l0-48H40zm521.9 0l38.1 0h24v48H600l-96 0H480V136l0-96V16l48 0V40 78.1L606.1 0 640 33.9 561.9 112zM128 256c20-48 86.4-144 192-144s172 96 192 144c-20 48-86.4 144-192 144s-172-96-192-144zm192 64a64 64 0 1 0 0-128 64 64 0 1 0 0 128zM528 433.9V472v24H480V472 376 352h24 96 24v48H600 561.9L640 478.1 606.1 512 528 433.9zM112 472V433.9L33.9 512 0 478.1 78.1 400H40 16l0-48H40h96 24v24 96 24H112V472z"/></svg>
